symbols/web/subscriptions/materialsymbolsrounded/subscriptions_wght500gradN25_40px.svg

<svg xmlns="http://www.w3.org/2000/svg" height="40" width="40"><path d="M13.125 5.917q-.542 0-.937-.375-.396-.375-.396-.917t.396-.937q.395-.396.937-.396h13.75q.542 0 .937.396.396.395.396.937t-.396.917q-.395.375-.937.375Zm-5.25 4.916q-.542 0-.937-.375-.396-.375-.396-.916 0-.542.396-.938.395-.396.937-.396h24.25q.542 0 .937.396.396.396.396.938 0 .541-.396.916-.395.375-.937.375ZM6.25 36.583q-1.167 0-2.042-.875-.875-.875-.875-2.041V16.042q0-1.167.875-2.042.875-.875 2.042-.875h27.5q1.167 0 2.042.875.875.875.875 2.042v17.625q0 1.166-.875 2.041t-2.042.875Zm.083-3h27.334v-.021.021-17.416H6.333v17.416ZM19 29.833 24.667 26q.625-.417.625-1.146 0-.729-.625-1.146L19 19.875q-.708-.458-1.438-.042-.729.417-.729 1.209v7.625q0 .833.729 1.229.73.396 1.438-.063ZM6.333 16.167v17.416-.021.021-17.416Z"/></svg>

<svg xmlns="http://www.w3.org/2000/svg" height="40" width="40"><path d="M13.125 5.917Q12.583 5.917 12.188 5.542Q11.792 5.167 11.792 4.625Q11.792 4.083 12.188 3.688Q12.583 3.292 13.125 3.292H26.875Q27.417 3.292 27.812 3.688Q28.208 4.083 28.208 4.625Q28.208 5.167 27.812 5.542Q27.417 5.917 26.875 5.917ZM7.875 10.833Q7.333 10.833 6.938 10.458Q6.542 10.083 6.542 9.542Q6.542 9 6.938 8.604Q7.333 8.208 7.875 8.208H32.125Q32.667 8.208 33.062 8.604Q33.458 9 33.458 9.542Q33.458 10.083 33.062 10.458Q32.667 10.833 32.125 10.833ZM6.25 36.583Q5.083 36.583 4.208 35.708Q3.333 34.833 3.333 33.667V16.042Q3.333 14.875 4.208 14Q5.083 13.125 6.25 13.125H33.75Q34.917 13.125 35.792 14Q36.667 14.875 36.667 16.042V33.667Q36.667 34.833 35.792 35.708Q34.917 36.583 33.75 36.583ZM6.333 33.583H33.667Q33.667 33.583 33.667 33.562Q33.667 33.542 33.667 33.583V16.167Q33.667 16.167 33.667 16.167Q33.667 16.167 33.667 16.167H6.333Q6.333 16.167 6.333 16.167Q6.333 16.167 6.333 16.167V33.583Q6.333 33.583 6.333 33.583Q6.333 33.583 6.333 33.583ZM19 29.833 24.667 26Q25.292 25.583 25.292 24.854Q25.292 24.125 24.667 23.708L19 19.875Q18.292 19.417 17.562 19.833Q16.833 20.25 16.833 21.042V28.667Q16.833 29.5 17.562 29.896Q18.292 30.292 19 29.833ZM6.333 16.167Q6.333 16.167 6.333 16.167Q6.333 16.167 6.333 16.167V33.583Q6.333 33.542 6.333 33.562Q6.333 33.583 6.333 33.583Q6.333 33.583 6.333 33.583Q6.333 33.583 6.333 33.583V16.167Q6.333 16.167 6.333 16.167Q6.333 16.167 6.333 16.167Z"/></svg>
